X:4753
T:Off She Goes. HSJJ.124
O:england
M:6/8
L:1/8
S:HSJ Jackson,Wyresdale,Lancs.1823
R:Jig
A:Lancashire
H:1823
K:D
{c}d2B AFA|B2dA3|B2Gg2f|efd cBA|{c}d2B AFA|Bcd AB=c|BGB cde|fged2z:|
|f2da2f|e2ca2c|dcd fed|cde AB=c|BGB Bcd|cAB cde|fga bgf|efd"DC" cBA|]


